X: 20238
T: Joe Derrane's
R: jig
M: 6/8
K: Bminor
|:~B3 BAF|AFE E2 F|DFA def|afe dBA|
BdB BAF|AFE E2 F|DFA def|1 edB B2 A:|2 edB B2 d||
|:~e3 edB|AFA d2 A|d2 f ~a3|baf afa|
baf afa|baf edB|d2 f afe|1 dBA B2 d:|2 dBA B2 A||

